X:212
T:The New Custom House
C:Trad.
D:"Cooley", track 6
R:reel
M:4/4
N:http://www2.redhawk.org/irish/cooley/cooley_cd.abc 2003-09-28 13:54:38 UT
K:Dmix
dB|ADdD (3EFG AB|cAGE CEGB|ADdD (3EFG AB|c3^c dcAG|
ADdD (3EFG AB|cAGE CEGB|ADdD (3EFG AB|cAGE ED~D2:|
|:Ad~d2 Adfd|ed^cd efgg|Ad~d2 Adfd|ed^cd ed~dc|
Ad~d2 Adfd|ed^cd efge|faag efge|1 (3fga ge d^cdB:|(3fga ge d4|
